dataset/hu.irl.cameractrls/icon.svg

<?xml version="1.0" encoding="UTF-8" standalone="no"?>
<!-- Generator: Adobe Illustrator 23.0.1, SVG Export Plug-In . SVG Version: 6.00 Build 0)  -->

<svg
   version="1.1"
   id="Livello_1"
   x="0px"
   y="0px"
   viewBox="0 0 128 128"
   enable-background="new 0 0 240.1 240.1"
   xml:space="preserve"
   width="128"
   height="128"
   xmlns:xlink="http://www.w3.org/1999/xlink"
   xmlns="http://www.w3.org/2000/svg"
   xmlns:svg="http://www.w3.org/2000/svg"><defs
   id="defs13"><linearGradient
     id="linearGradient22"
     gradientUnits="userSpaceOnUse"
     x1="0"
     y1="269.46301"
     x2="118.926"
     y2="269.46301"
     gradientTransform="matrix(1,0,0,0.98333333,-118,-175.03333)"><stop
       offset="0"
       stop-color="#e5a50a"
       id="stop19"
       style="stop-color:#25222a;stop-opacity:1;" /><stop
       offset="0.414"
       stop-color="#fbdf9b"
       id="stop20"
       style="stop-color:#cbcace;stop-opacity:1;" /><stop
       offset="0.81300002"
       stop-color="#e5a50a"
       id="stop21"
       style="stop-color:#322e38;stop-opacity:1;" /><stop
       offset="1"
       stop-color="#f8ca5b"
       id="stop22"
       style="stop-color:#97959d;stop-opacity:1;" /></linearGradient><linearGradient
     id="a-6"
     gradientUnits="userSpaceOnUse"
     x1="75.617424"
     x2="48"
     y1="104.6131"
     y2="-24"
     gradientTransform="matrix(1.0027418,0,0,0.98333333,-0.17546822,-0.93333139)"><stop
       offset="0"
       stop-color="#312c3c"
       id="stop2-1" /><stop
       offset="1"
       id="stop4-2" /></linearGradient><linearGradient
     id="c-9"
     x1="63.999962"
     x2="63.999962"
     xlink:href="#b-3"
     y1="7.7498779"
     y2="171.81238"
     gradientTransform="matrix(1.0027418,0,0,0.98333333,-0.17546822,-0.93333139)" /><linearGradient
     id="b-3"
     gradientUnits="userSpaceOnUse"><stop
       offset="0"
       stop-color="#3d3846"
       id="stop7-1" /><stop
       offset="1"
       stop-color="#77767b"
       id="stop9-9" /></linearGradient><clipPath
     id="d-4"><path
       d="m 25,25 h 78 v 78 H 25 Z m 0,0"
       id="path13" /></clipPath><clipPath
     id="e-7"><path
       d="m 102.88672,63.945312 c 0,21.507813 -17.433595,38.941408 -38.941408,38.941408 C 42.4375,102.88672 25,85.453125 25,63.945312 25,42.4375 42.4375,25 63.945312,25 85.453125,25 102.88672,42.4375 102.88672,63.945312 Z m 0,0"
       id="path16-8" /></clipPath><clipPath
     id="i-4"><rect
       height="128"
       width="128"
       id="rect32"
       x="0"
       y="0" /></clipPath><mask
     id="g-5"><g
       filter="url(#f)"
       id="g24"
       style="filter:url(#f-0)"><rect
         fill-opacity="0.380411"
         height="128"
         width="128"
         id="rect22"
         x="0"
         y="0" /></g></mask><filter
     id="f-0"
     height="1"
     width="1"
     x="0"
     y="0"><feColorMatrix
       in="SourceGraphic"
       type="matrix"
       values="0 0 0 0 1 0 0 0 0 1 0 0 0 0 1 0 0 0 1 0"
       id="feColorMatrix19" /></filter><radialGradient
     id="h-3"
     cx="63.955067"
     cy="211.95488"
     gradientTransform="matrix(4.794781,-4.794781,4.794783,4.794783,-1259.0892,-645.78809)"
     gradientUnits="userSpaceOnUse"
     r="9.310895"><stop
       offset="0.3"
       stop-color="#ff0000"
       id="stop27" /><stop
       offset="1"
       stop-color="#ffffff"
       stop-opacity="0"
       id="stop29" /></radialGradient><linearGradient
     id="j-6"
     x1="61.518589"
     x2="61.518589"
     xlink:href="#b-3"
     y1="151.36249"
     y2="-30.445826"
     gradientTransform="matrix(1.0027418,0,0,0.98333333,-0.17546822,-0.93333139)" /><linearGradient
     xlink:href="#linearGradient22"
     id="linearGradient19"
     x1="-184"
     y1="66"
     x2="-63.999996"
     y2="66"
     gradientUnits="userSpaceOnUse"
     gradientTransform="translate(188)" /></defs>

<path
   d="M 124.00001,66 C 124.00001,98.58472 97.137005,125 64,125 30.863,125 4,98.58472 4,66 4,33.415284 30.863,7.0000037 64,7.0000037 97.137005,7.0000037 124.00001,33.415284 124.00001,66 Z m 0,0"
   fill="#deddda"
   id="path3"
   style="fill:url(#linearGradient19);fill-opacity:1;stroke-width:0.991632" /><path
   d="m 104.10968,62.000002 c 0,21.721676 -17.959267,39.333328 -40.109673,39.333328 -22.150406,0 -40.109672,-17.611652 -40.109672,-39.333328 0,-21.72168 17.959266,-39.333333 40.109672,-39.333333 22.150406,0 40.109673,17.611653 40.109673,39.333333 z m 0,0"
   fill="url(#a)"
   id="path36-3"
   style="fill:url(#a-6);stroke-width:0.99299" /><g
   fill="none"
   stroke="#000000"
   id="g50"
   style="stroke-width:1.5;stroke-dasharray:none"
   transform="matrix(1.0027418,0,0,0.98333333,-0.17546822,-0.93333139)"><path
     d="M 52.382812,23.386719 C 33.058594,18.210938 13.195313,29.675782 8.0195313,49 5.2851562,59.203125 7.1953125,69.554688 12.449219,77.816407 c 0.371094,-8.746094 3.890625,-17.382813 10.570312,-24.0625 14.144531,-14.144532 37.078125,-14.144532 51.226563,0 1.910156,1.910156 3.554687,3.984375 4.949218,6.171875 0.726563,-16.597657 -10.101562,-32.0625 -26.8125,-36.539063 z m 0,0"
     id="path38-2"
     style="stroke-width:1.5;stroke-dasharray:none" /><path
     d="M 68.5,8.2226568 C 62.347656,6.4257818 55.640625,6.2382818 49,8.0195318 38.796875,10.753907 30.792969,17.582032 26.261719,26.257813 c 7.761718,-4.046875 17,-5.316406 26.121093,-2.871094 19.324219,5.179688 30.789063,25.039063 25.613282,44.363281 -0.699219,2.609375 -1.675782,5.074219 -2.875,7.375 C 89.863281,67.457032 97.839844,50.347657 93.363281,33.632813 89.964844,20.953125 80.242187,11.652344 68.5,8.2226568 Z m 0,0"
     id="path40-0"
     style="stroke-width:1.5;stroke-dasharray:none" /><path
     d="m 87.992187,13.445313 c -3.335937,-0.8125 -6.765625,-1.144531 -10.179687,-1 7.386719,4.699219 13.105469,12.066406 15.550781,21.1875 5.175781,19.324219 -6.289062,39.183594 -25.613281,44.363281 -2.609375,0.699219 -5.230469,1.082031 -7.820313,1.195313 14.011719,8.933593 32.816407,7.289062 45.050783,-4.945313 14.14453,-14.144531 14.14453,-37.082031 0,-51.226562 -4.86328,-4.863282 -10.76172,-8.054688 -16.988283,-9.574219 z m 0,0"
     id="path42-6"
     style="stroke-width:1.5;stroke-dasharray:none" /><path
     d="m 115.55078,50.183594 c -0.37109,8.746094 -3.89062,17.382813 -10.57031,24.0625 -14.144533,14.144531 -37.082033,14.144531 -51.226564,0 C 51.84375,72.335938 50.199219,70.261719 48.804687,68.074219 48.078125,84.671875 58.90625,100.13672 75.617187,104.61328 94.941406,109.78906 114.80469,98.324219 119.98047,79 c 2.73437,-10.203125 0.82422,-20.554687 -4.42969,-28.816406 z m 0,0"
     id="path44"
     style="stroke-width:1.5;stroke-dasharray:none" /><path
     d="M 52.875,52.875 C 38.136719,60.542969 30.160156,77.652344 34.636719,94.367188 39.816406,113.69141 59.675781,125.15625 79,119.98047 c 10.199219,-2.73438 18.207031,-9.5625 22.73438,-18.23828 -7.757818,4.04687 -16.996099,5.3164 -26.117193,2.87109 C 56.292969,99.433594 44.828125,79.574219 50.003906,60.25 50.703125,57.640625 51.679687,55.175782 52.875,52.875 Z m 0,0"
     id="path46"
     style="stroke-width:1.5;stroke-dasharray:none" /><path
     d="M 57.257812,44.183594 C 45.371094,41.28125 32.300781,44.472657 23.019531,53.753907 8.875,67.898438 8.875,90.835938 23.019531,104.98047 30.488281,112.44922 40.40625,115.96875 50.1875,115.55469 42.796875,110.85547 37.082031,103.48828 34.636719,94.367188 29.460937,75.042969 40.925781,55.183594 60.25,50.003907 c 2.609375,-0.699219 5.226562,-1.082032 7.820312,-1.199219 -3.378906,-2.152344 -7.035156,-3.699219 -10.8125,-4.621094 z m 0,0"
     id="path48"
     style="stroke-width:1.5;stroke-dasharray:none" /></g><path
   d="m 67.928719,46.965757 c -2.510775,0.126758 -5.045044,0.495508 -7.575403,1.160026 -3.19624,0.979492 -4.982373,1.624805 -7.508812,2.934635 -1.198587,2.262435 -2.177824,4.686198 -2.878961,7.252084 -0.701138,2.569726 -1.088918,5.143294 -1.202509,7.693815 1.398354,2.151042 3.047393,4.19069 4.96279,6.06901 1.919308,1.882161 4.003126,3.495443 6.200544,4.866731 2.596941,-0.115233 5.217386,-0.491666 7.833921,-1.179231 2.616524,-0.687565 5.088132,-1.647852 7.395221,-2.827083 1.202508,-2.262435 2.173914,-4.682357 2.875051,-7.248242 0.701137,-2.565886 1.092828,-5.143295 1.206418,-7.693816 -1.398353,-2.151041 -3.051313,-4.19069 -4.9667,-6.06901 -1.958485,-1.920573 -4.089311,-3.568424 -6.34156,-4.958919 z m -8.002351,29.976301 c -0.004,0 -0.004,0 -0.008,0 0.05876,0.03457 0.121422,0.06914 0.180183,0.107554 -0.05485,-0.03457 -0.11359,-0.07298 -0.172351,-0.107554 z m 0.172352,0.107554 c -49.056014,-59.107553 -24.528007,-29.553777 0,0 z M 79.236979,57.955275 c -61.817457,-46.377995 -30.908733,-23.188997 0,0 z m -30.477865,8.14323 c -41.4962736,-51.805534 -20.748132,-25.904688 0,0 z m 26.580489,6.741211 c -59.216596,-56.299675 -29.608298,-28.151759 0,0 z m 0,0"
   id="path52"
   style="stroke-width:0.99299" /><path
   d="m 64.000007,4.9666686 c -32.119073,0 -58.1590244,25.5359374 -58.1590244,57.0333334 0,31.497395 26.0399514,57.033328 58.1590244,57.033328 32.119073,0 58.159023,-25.535933 58.159023,-57.033328 0,-31.497396 -26.03995,-57.0333334 -58.159023,-57.0333334 z M 63.878585,22.547593 c 22.220909,0 40.231095,17.66543 40.231095,39.452409 0,21.786979 -18.010186,39.452408 -40.231095,39.452408 -22.216998,0 -40.231104,-17.661584 -40.231104,-39.452408 0,-21.79082 18.014106,-39.452409 40.231104,-39.452409 z m 0,0"
   fill="url(#c)"
   id="path54"
   style="fill:url(#c-9);stroke-width:0.99299" /><g
   clip-path="url(#d-4)"
   id="g62"
   transform="matrix(1.0027418,0,0,0.98333333,-0.17546822,-0.93333139)"><g
     clip-path="url(#e-7)"
     id="g60"><g
       clip-path="url(#i-4)"
       mask="url(#g-5)"
       id="g58"><path
         d="m 68.507812,45.253906 c 0,12.84375 -10.410156,23.253906 -23.253906,23.253906 C 32.410156,68.507812 22,58.097656 22,45.253906 22,32.410156 32.410156,22 45.253906,22 c 12.84375,0 23.253906,10.410156 23.253906,23.253906 z m 0,0"
         fill="url(#h)"
         id="path56"
         style="fill:url(#h-3)" /></g></g></g><path
   d="m 63.878585,20.208335 c -23.537017,0 -42.616527,18.710222 -42.616527,41.791667 0,23.081449 19.07951,41.791668 42.616527,41.791668 23.537007,0 42.616525,-18.710219 42.616525,-41.791668 0,-23.081445 -19.079518,-41.791667 -42.616525,-41.791667 z m 0.121422,4.916667 c 20.767725,0 37.602813,16.509244 37.602813,36.875 0,20.365757 -16.835088,36.875 -37.602813,36.875 -20.767725,0 -37.602818,-16.509243 -37.602818,-36.875 0,-20.365756 16.835093,-36.875 37.602818,-36.875 z m 0,0"
   fill="url(#j)"
   id="path64"
   style="fill:url(#j-6);stroke-width:0.99299" /><path
   d="M 64.000007,3.0000019 C 30.862529,3.0000019 4.0000088,29.415561 4.0000088,62.000002 4.0000088,94.584443 30.862529,121 64.000007,121 97.13749,121 124.00001,94.584443 124.00001,62.000002 124.00001,29.415561 97.13749,3.0000019 64.000007,3.0000019 Z m 0,3.9333333 c 31.014491,0 56.153543,24.6524738 56.153543,55.0666668 0,30.414195 -25.139052,55.066668 -56.153543,55.066668 -31.014493,0 -56.1535408,-24.652473 -56.1535408,-55.066668 0,-30.414193 25.1390478,-55.0666668 56.1535408,-55.0666668 z m 0,0"
   fill="#9a9996"
   id="path66"
   style="stroke-width:0.99299" /></svg>

<svg xmlns="http://www.w3.org/2000/svg" xmlns:xlink="http://www.w3.org/1999/xlink" xml:space="preserve" width="128" height="128" enable-background="new 0 0 240.1 240.1" viewBox="0 0 128 128"><defs><linearGradient id="e" x1="0" x2="118.926" y1="269.463" y2="269.463" gradientTransform="matrix(1 0 0 .98333 -118 -175.033)" gradientUnits="userSpaceOnUse"><stop offset="0" stop-color="#e5a50a" style="stop-color:#25222a;stop-opacity:1"/><stop offset=".414" stop-color="#fbdf9b" style="stop-color:#cbcace;stop-opacity:1"/><stop offset=".813" stop-color="#e5a50a" style="stop-color:#322e38;stop-opacity:1"/><stop offset="1" stop-color="#f8ca5b" style="stop-color:#97959d;stop-opacity:1"/></linearGradient><linearGradient id="i" x1="75.617" x2="48" y1="104.613" y2="-24" gradientTransform="matrix(1.00274 0 0 .98333 -.175 -.933)" gradientUnits="userSpaceOnUse"><stop offset="0" stop-color="#312c3c"/><stop offset="1"/></linearGradient><linearGradient xlink:href="#b" id="k" x1="64" x2="64" y1="7.75" y2="171.812" gradientTransform="matrix(1.00274 0 0 .98333 -.175 -.933)"/><linearGradient id="b" gradientUnits="userSpaceOnUse"><stop offset="0" stop-color="#3d3846"/><stop offset="1" stop-color="#77767b"/></linearGradient><linearGradient xlink:href="#b" id="q" x1="61.519" x2="61.519" y1="151.362" y2="-30.446" gradientTransform="matrix(1.00274 0 0 .98333 -.175 -.933)"/><linearGradient xlink:href="#e" id="g" x1="-184" x2="-64" y1="66" y2="66" gradientTransform="translate(188)" gradientUnits="userSpaceOnUse"/><clipPath id="l"><path d="M25 25h78v78H25Zm0 0"/></clipPath><clipPath id="m"><path d="M102.887 63.945c0 21.508-17.434 38.942-38.942 38.942S25 85.453 25 63.945 42.438 25 63.945 25s38.942 17.438 38.942 38.945m0 0"/></clipPath><clipPath id="n"><path d="M0 0h128v128H0z"/></clipPath><radialGradient id="p" cx="63.955" cy="211.955" r="9.311" gradientTransform="rotate(-45 -1409.08 1196.961)scale(6.78084 6.78085)" gradientUnits="userSpaceOnUse"><stop offset=".3" stop-color="red"/><stop offset="1" stop-color="#fff" stop-opacity="0"/></radialGradient><filter id="d" width="1" height="1" x="0" y="0"><feColorMatrix in="SourceGraphic" values="0 0 0 0 1 0 0 0 0 1 0 0 0 0 1 0 0 0 1 0"/></filter><mask id="o"><g filter="url(#f)" style="filter:url(#d)"><path fill-opacity=".38" d="M0 0h128v128H0z"/></g></mask></defs><path fill="#deddda" d="M124 66c0 32.585-26.863 59-60 59S4 98.585 4 66 30.863 7 64 7s60 26.415 60 59m0 0" style="fill:url(#g);fill-opacity:1;stroke-width:.991632"/><path fill="url(#a)" d="M104.11 62c0 21.722-17.96 39.333-40.11 39.333S23.89 83.722 23.89 62 41.85 22.667 64 22.667 104.11 40.278 104.11 62m0 0" style="fill:url(#i);stroke-width:.99299"/><g fill="none" stroke="#000" style="stroke-width:1.5;stroke-dasharray:none"><path d="M52.383 23.387C33.059 18.21 13.195 29.676 8.02 49c-2.735 10.203-.825 20.555 4.43 28.816.37-8.746 3.89-17.382 10.57-24.062 14.144-14.145 37.078-14.145 51.226 0a36.3 36.3 0 0 1 4.95 6.172c.726-16.598-10.102-32.063-26.813-36.54zm0 0" style="stroke-width:1.5;stroke-dasharray:none" transform="matrix(1.00274 0 0 .98333 -.175 -.933)"/><path d="M68.5 8.223A36.04 36.04 0 0 0 49 8.02c-10.203 2.734-18.207 9.562-22.738 18.238 7.761-4.047 17-5.317 26.12-2.871 19.325 5.18 30.79 25.039 25.614 44.363a36.2 36.2 0 0 1-2.875 7.375c14.742-7.668 22.719-24.777 18.242-41.492-3.398-12.68-13.12-21.98-24.863-25.41Zm0 0" style="stroke-width:1.5;stroke-dasharray:none" transform="matrix(1.00274 0 0 .98333 -.175 -.933)"/><path d="M87.992 13.445a36.5 36.5 0 0 0-10.18-1c7.387 4.7 13.106 12.067 15.551 21.188 5.176 19.324-6.289 39.183-25.613 44.363-2.61.7-5.23 1.082-7.82 1.195 14.011 8.934 32.816 7.29 45.05-4.945 14.145-14.144 14.145-37.082 0-51.226a36.05 36.05 0 0 0-16.988-9.575zm0 0" style="stroke-width:1.5;stroke-dasharray:none" transform="matrix(1.00274 0 0 .98333 -.175 -.933)"/><path d="M115.55 50.184c-.37 8.746-3.89 17.382-10.57 24.062-14.144 14.145-37.082 14.145-51.226 0a36.3 36.3 0 0 1-4.95-6.172c-.726 16.598 10.102 32.063 26.813 36.54 19.324 5.175 39.188-6.29 44.363-25.614 2.735-10.203.825-20.555-4.43-28.816zm0 0" style="stroke-width:1.5;stroke-dasharray:none" transform="matrix(1.00274 0 0 .98333 -.175 -.933)"/><path d="M52.875 52.875C38.137 60.543 30.16 77.652 34.637 94.367c5.18 19.324 25.039 30.79 44.363 25.613 10.2-2.734 18.207-9.562 22.734-18.238-7.757 4.047-16.996 5.317-26.117 2.871-19.324-5.18-30.789-25.039-25.613-44.363a36.5 36.5 0 0 1 2.871-7.375Zm0 0" style="stroke-width:1.5;stroke-dasharray:none" transform="matrix(1.00274 0 0 .98333 -.175 -.933)"/><path d="M57.258 44.184c-11.887-2.903-24.957.289-34.238 9.57-14.145 14.144-14.145 37.082 0 51.226 7.468 7.47 17.386 10.989 27.168 10.575-7.391-4.7-13.106-12.067-15.551-21.188-5.176-19.324 6.289-39.183 25.613-44.363 2.61-.7 5.227-1.082 7.82-1.2a36 36 0 0 0-10.812-4.62zm0 0" style="stroke-width:1.5;stroke-dasharray:none" transform="matrix(1.00274 0 0 .98333 -.175 -.933)"/></g><path d="M67.929 46.966c-2.511.127-5.045.495-7.576 1.16-3.196.98-4.982 1.625-7.508 2.934a35.4 35.4 0 0 0-2.88 7.253 35 35 0 0 0-1.202 7.693 36 36 0 0 0 4.963 6.07 36.2 36.2 0 0 0 6.2 4.866 37.3 37.3 0 0 0 7.834-1.18 36.8 36.8 0 0 0 7.396-2.826 35.2 35.2 0 0 0 4.081-14.942 36 36 0 0 0-4.967-6.07 36.2 36.2 0 0 0-6.341-4.958m-8.003 29.976h-.008q.092.052.18.108-.082-.054-.172-.108zm.173.108c-49.056-59.108-24.528-29.554 0 0m19.138-19.095c-61.817-46.378-30.909-23.189 0 0M48.759 66.1c-41.496-51.806-20.748-25.905 0 0m26.58 6.74c-59.216-56.299-29.608-28.151 0 0m0 0" style="stroke-width:.99299"/><path fill="url(#c)" d="M64 4.967C31.88 4.967 5.841 30.503 5.841 62S31.881 119.033 64 119.033 122.159 93.497 122.159 62 96.119 4.967 64 4.967m-.121 17.58c22.22 0 40.23 17.666 40.23 39.453s-18.01 39.452-40.23 39.452c-22.217 0-40.232-17.661-40.232-39.452S41.662 22.548 63.88 22.548m0 0" style="fill:url(#k);stroke-width:.99299"/><g clip-path="url(#l)" transform="matrix(1.00274 0 0 .98333 -.175 -.933)"><g clip-path="url(#m)"><g clip-path="url(#n)" mask="url(#o)"><path fill="url(#h)" d="M68.508 45.254c0 12.844-10.41 23.254-23.254 23.254S22 58.098 22 45.254 32.41 22 45.254 22s23.254 10.41 23.254 23.254m0 0" style="fill:url(#p)"/></g></g></g><path fill="url(#j)" d="M63.879 20.208c-23.537 0-42.617 18.71-42.617 41.792 0 23.081 19.08 41.792 42.617 41.792S106.495 85.082 106.495 62c0-23.081-19.08-41.792-42.616-41.792M64 25.125c20.768 0 37.603 16.51 37.603 36.875 0 20.366-16.835 36.875-37.603 36.875S26.397 82.365 26.397 62c0-20.366 16.835-36.875 37.603-36.875m0 0" style="fill:url(#q);stroke-width:.99299"/><path fill="#9a9996" d="M64 3C30.863 3 4 29.416 4 62s26.863 59 60 59 60-26.416 60-59S97.137 3 64 3m0 3.933c31.014 0 56.154 24.653 56.154 55.067S95.014 117.067 64 117.067 7.846 92.414 7.846 62 32.986 6.933 64 6.933m0 0" style="stroke-width:.99299"/></svg>
